!!!COM: Bach, Johann Sebastian
!!!OPR: Joh. Seb. Bachs vierstimmige Choralges‰nge
!!!XEN: Four-part Chorales
!!!OTL: 167. Warum betr¸bst du dich, mein Herz
!!!SCT: BWV 420
!!!SCA: Thematisch-systematisches Verzeichnis der musikalischen Werke Johann Sebastian Bach: Bach-Werke-Verzeichnis (Schmieder)
!!!YOR: Bach Gesellschaft Edition xxxix
!!!ENC: Steven Rasmussen
!!!CDT: 1685/3//-1750/7/28/
!!!OCY: Deutschland
!!!YEC: Copyright (c) 1994, 2000 Center for Computer Assisted Research in the Humanities
!!!YEM: Rights to all derivative editions reserved
!!!YEN: United States of America
**kern	**kern	**kern	**kern	**silbe
*I:[BASSO]	*I:[TENORE]	*I:[ALTO]	*I:[SOPRANO]	*I:[SOPRANO]
*clefF4	*clefGv2	*clefG2	*clefG2	*
*k[]	*k[]	*k[]	*k[]	*
*a:	*a:	*a:	*a:	*
*M4/4	*M4/4	*M4/4	*M4/4	*
4AA	4c#	4e	4a	Wa-
=1	=1	=1	=1	=1
8AL	8cL	4e	8aL	-rum
8G#J	8BJ	.	8bJ	.
4A	4A	4e	4cc	be-
8EL	4G#	4.e	4b	-tr√ºbst
8DJ	.	.	.	.
4C	4A	.	4ee	du
.	.	8f#	.	.
=2	=2	=2	=2	=2
4BB	4B	4g#	4dd	dich,
4AA	8cL	4a	4cc	mein
.	8dJ	.	.	.
4E;	4e;	4g#;	4b;	Herz,
4AA	8eL	8aL	8ccL	be-
.	8dJ	8g#J	8bJ	.
=3	=3	=3	=3	=3
4A	8cL	4a	4a	-k√ºm-
.	8BJ	.	.	.
8AL	4c#	4a	4ee	-merst
8GJ	.	.	.	.
8FL	8dL	4a	4dd	dich
8EJ	8cnJ	.	.	.
8DL	8B-L	4g	4ee	und
8C#J	8AJ	.	.	.
=4	=4	=4	=4	=4
4D	4A	8gL	8aL	tr√§-
.	.	8fJ	8bJ	.
4AA	4A	4e	4cc#	-gest
4DD;	4A;	4f;	4dd;	Schmerz
4AA	4A	4e	4ccn	nur
=5	=5	=5	=5	=5
8EL	4G#	4e	4b	um
8DJ	.	.	.	.
8CL	8AL	8eL	4ee	das
8EJ	8G#J	8bJ	.	.
8FF#L	8AL	(8cc	8eeL	zeit-
8GG#J	8BJ	4b)	8ddJ	.
4AA	8cL	.	4cc	-lich
.	8dJ	8a	.	.
=6	=6	=6	=6	=6
2.EE;	2.e;	2.g#;	2.b;	Gut?
4AA	8cL	4e	8aL	Ver-
.	8BJ	.	8bJ	.
=7	=7	=7	=7	=7
8AL	4A	4e	4cc	-trau'
8GJ	.	.	.	.
8FL	4A	8fL	4cc	du
8EJ	.	8gJ	.	.
8FL	8AL	8aL	4dd	dei-
8DJ	16BL	8fJ	.	.
.	16cJJ	.	.	.
8GL	4B	4g	4dd	-nem
8FJ	.	.	.	.
=8	=8	=8	=8	=8
8EL	4c	4g	4ee	Her-
8DJ	.	.	.	.
4C	4c	4g	8eeL	-ren
.	.	.	8ddJ	.
4F;	4c;	4a;	4cc;	Gott,
8CL	4c	8gL	4ee	der
8BBJ	.	8aJ	.	.
=9	=9	=9	=9	=9
8AAL	8fL	4b	4dd	al-
8GG#J	8eJ	.	.	.
8AAL	4e	4a	4cc	-le
8GGnJ	.	.	.	.
8FFL	4d	4g#	4b	Ding'
8EEJ	.	.	.	.
8FFL	8cL	4a	8aL	er-
8DDJ	8fJ	.	8bJ	.
=10	=10	=10	=10	=10
4EE	8eL	8aL	4cc	-schaf-
.	8AJ	8f#J	.	.
4EE	8BL	4g#	4b	-fen
.	8dJ	.	.	.
4AA;	4c#;	4e;	4a;	hat.
==|!	==|!	==|!	==|!	==|!
*-	*-	*-	*-	*-
!!!RWG: Key is interpreted using the Humdrum key tool.
!!!END: 1994/08/03
!!!EMD: Converted from MuseData to Humdrum Dec 19, 2000, by Andreas Kornstaedt using muse2kern.
!!!EED: Craig Stuart Sapp
!!!EEV: 2024/03/31
!!!ONB: Some non-unicode characters
!!!filter-keyboard: satb2gs
